svg/alphanum/10-square.svg

<svg width="448" height="512" viewBox="0 0 448 512" fill="none" xmlns="http://www.w3.org/2000/svg">
<path d="M325.853 316.811C318.1 333.558 308.686 341.931 297.61 341.931C286.535 341.931 277.12 333.558 269.367 316.811C261.615 300.065 257.738 279.877 257.738 256.245C257.738 232.613 261.615 212.425 269.367 195.679C277.12 178.932 286.535 170.559 297.61 170.559C308.686 170.559 318.1 178.932 325.853 195.679C333.606 212.425 337.482 232.613 337.482 256.245C337.482 279.877 333.606 300.065 325.853 316.811Z" fill="black"/>
<path fill-rule="evenodd" clip-rule="evenodd" d="M48 32C21.4903 32 0 53.4903 0 80V432C0 458.51 21.4903 480 48 480H400C426.51 480 448 458.51 448 432V80C448 53.4903 426.51 32 400 32H48ZM163.425 346.266V127.207C163.425 119.046 162.275 113.266 159.974 109.865C157.674 106.465 153.457 104.765 147.323 104.765H124.064C122.019 104.765 120.273 104.85 118.824 105.02C117.376 105.19 116.055 105.36 114.863 105.53C113.67 105.7 112.605 106.125 111.668 106.805C110.731 107.485 110.006 107.995 109.495 108.335C108.984 108.675 108.302 109.525 107.45 110.885C106.599 112.246 106.002 113.266 105.661 113.946C105.321 114.626 104.596 116.028 103.489 118.153C102.381 120.279 101.572 121.936 101.061 123.126C93.2226 138.087 84.1065 147.863 73.7125 152.453C71.1565 153.643 68.8988 156.278 66.9393 160.359C64.9798 164.439 64 168.349 64 172.089V192.746C64 197.846 65.4483 202.266 68.345 206.007C71.2417 209.747 74.82 211.617 79.0799 211.617C79.7289 211.617 80.2997 211.626 80.8141 211.634C83.8547 211.68 84.9241 211.696 88.5367 209.704L93.393 207.027L97.9936 203.967C99.016 203.287 100.933 201.884 103.744 199.759C106.556 197.634 108.643 196.146 110.006 195.296V346.266H91.3482C87.2588 346.266 83.7231 348.094 80.7412 351.749C77.7593 355.404 76.2684 359.867 76.2684 365.137V390.129C76.2684 395.399 77.7593 399.862 80.7412 403.517C83.7231 407.172 87.2588 409 91.3482 409H182.083C186.173 409 189.708 407.172 192.69 403.517C195.672 399.862 197.163 395.399 197.163 390.129V365.137C197.163 359.867 195.672 355.404 192.69 351.749C189.708 348.094 186.173 346.266 182.083 346.266H163.425ZM254.16 387.961C267.451 401.477 281.934 408.235 297.61 408.235C313.286 408.235 327.77 401.477 341.061 387.961C354.351 374.445 364.831 355.999 372.498 332.622C380.166 309.246 384 283.787 384 256.245C384 228.703 380.166 203.244 372.498 179.867C364.831 156.491 354.351 138.002 341.061 124.401C327.77 110.8 313.286 104 297.61 104C281.934 104 267.451 110.8 254.16 124.401C240.869 138.002 230.39 156.491 222.722 179.867C215.054 203.244 211.22 228.703 211.22 256.245C211.22 283.787 215.054 309.246 222.722 332.622C230.39 355.999 240.869 374.445 254.16 387.961Z" fill="black"/>
</svg>

<svg width="448" height="512" viewBox="0 0 448 512" version="1.1" xmlns="http://www.w3.org/2000/svg"><path fill="currentColor" d="M400,480l-352,0c-26.51,0 -48,-21.49 -48,-48l0,-352c0,-26.51 21.49,-48 48,-48l352,0c26.51,0 48,21.49 48,48l0,352c0,26.509 -21.489,47.999 -48,48Zm-252.677,-375.235l-23.259,0c-2.046,0 -3.791,0.085 -5.24,0.255c-1.448,0.17 -2.769,0.34 -3.961,0.51c-1.193,0.17 -2.258,0.595 -3.195,1.275c-0.937,0.68 -1.662,1.19 -2.173,1.53c-0.511,0.34 -1.193,1.19 -2.045,2.55c-0.851,1.361 -1.448,2.381 -1.789,3.061c-0.34,0.68 -1.065,2.082 -2.172,4.207c-1.108,2.126 -1.917,3.783 -2.428,4.973c-7.838,14.961 -16.955,24.737 -27.349,29.327c-2.556,1.19 -4.813,3.825 -6.773,7.906c-1.959,4.08 -2.939,7.99 -2.939,11.73l0,20.657c0,5.1 1.448,9.52 4.345,13.261c2.897,3.74 6.475,5.61 10.735,5.61c0.649,0 1.22,0.009 1.734,0.017c3.041,0.046 4.11,0.062 7.723,-1.93l4.856,-2.677l4.601,-3.06c1.022,-0.68 2.939,-2.083 5.75,-4.208c2.812,-2.125 4.899,-3.613 6.262,-4.463l0,150.97l-18.658,0c-4.09,0.001 -7.625,1.829 -10.607,5.483c-2.982,3.655 -4.473,8.118 -4.473,13.388l0,24.992c0,5.27 1.491,9.733 4.473,13.388c2.982,3.655 6.518,5.483 10.607,5.483l90.735,0c4.09,0 7.625,-1.828 10.607,-5.483c2.982,-3.655 4.473,-8.118 4.473,-13.388l0,-24.992c0,-5.27 -1.491,-9.733 -4.473,-13.388c-2.982,-3.655 -6.517,-5.483 -10.607,-5.483l-18.658,0l0,-219.059c0,-8.161 -1.15,-13.941 -3.451,-17.342c-2.3,-3.4 -6.516,-5.1 -12.651,-5.1Zm106.837,283.196c13.291,13.516 27.774,20.274 43.45,20.274c15.676,0 30.16,-6.758 43.451,-20.274c13.29,-13.516 23.77,-31.962 31.437,-55.339c7.668,-23.376 11.502,-48.835 11.502,-76.377c0,-27.542 -3.834,-53.001 -11.502,-76.378c-7.667,-23.376 -18.147,-41.865 -31.437,-55.466c-13.291,-13.601 -27.775,-20.401 -43.451,-20.401c-15.676,0 -30.159,6.8 -43.45,20.401c-13.291,13.601 -23.77,32.09 -31.438,55.466c-7.668,23.377 -11.502,48.836 -11.502,76.378c0,27.542 3.834,53.001 11.502,76.377c7.668,23.377 18.147,41.823 31.438,55.339Zm71.693,-71.15c7.753,-16.746 11.629,-36.934 11.629,-60.566c0,-23.632 -3.876,-43.82 -11.629,-60.566c-7.753,-16.747 -17.167,-25.12 -28.243,-25.12c-11.075,0 -20.49,8.373 -28.243,25.12c-7.752,16.746 -11.629,36.934 -11.629,60.566c0,23.632 3.877,43.82 11.629,60.566c7.753,16.747 17.168,25.12 28.243,25.12c11.076,0 20.49,-8.373 28.243,-25.12Z"></path></svg>
